public/assets/images/bascet.svg

<svg width="41" height="37" viewBox="0 0 41 37" fill="none" xmlns="http://www.w3.org/2000/svg">
<path d="M15.4175 31.2539C13.6301 31.2539 12.1777 32.5645 12.1777 34.1776C12.1777 35.7907 13.6301 37.1013 15.4175 37.1013C17.205 37.1013 18.6573 35.7907 18.6573 34.1776C18.6573 32.5645 17.0933 31.2539 15.4175 31.2539ZM31.6164 31.2539C29.829 31.2539 28.3766 32.5645 28.3766 34.1776C28.3766 35.7907 29.829 37.1013 31.6164 37.1013C33.4039 37.1013 34.8562 35.7907 34.8562 34.1776C34.8562 32.5645 33.2922 31.2539 31.6164 31.2539Z" fill="white"/>
<path d="M38.7657 5.54496H10.5014L9.60763 2.21798C9.27248 1.00817 8.0436 0 6.59128 0H2.0109C0.893733 0 0 0.806539 0 1.81471C0 2.82289 0.893733 3.62943 2.0109 3.62943H5.92098L11.1717 21.8774L9.04905 26.2125C8.82561 26.7166 8.82561 27.4223 9.16076 27.9264C9.49591 28.4305 10.1662 28.733 10.8365 28.733H35.4142C36.5313 28.733 37.4251 27.9264 37.4251 26.9183C37.4251 25.9101 36.5313 25.1035 35.4142 25.1035H13.8529L15.0817 22.6839V22.5831H35.4142C36.4196 22.5831 37.3134 21.9782 37.5368 21.0708L41 7.96458C41.3352 6.75477 40.218 5.54496 38.7657 5.54496ZM19.7738 16.6349C19.7738 17.3406 19.1035 17.9455 18.3215 17.9455C17.5395 17.9455 16.8692 17.3406 16.8692 16.6349V11.4932C16.8692 10.7875 17.5395 10.1826 18.3215 10.1826C19.1035 10.1826 19.7738 10.7875 19.7738 11.4932V16.6349ZM26.4768 16.6349C26.4768 17.3406 25.8065 17.9455 25.0245 17.9455C24.2425 17.9455 23.5722 17.3406 23.5722 16.6349V11.4932C23.5722 10.7875 24.2425 10.1826 25.0245 10.1826C25.8065 10.1826 26.4768 10.7875 26.4768 11.4932V16.6349ZM33.1798 16.6349C33.1798 17.3406 32.5095 17.9455 31.7275 17.9455C30.9455 17.9455 30.2752 17.3406 30.2752 16.6349V11.4932C30.2752 10.7875 30.9455 10.1826 31.7275 10.1826C32.5095 10.1826 33.1798 10.7875 33.1798 11.4932V16.6349Z" fill="white"/>
</svg>

<svg xmlns="http://www.w3.org/2000/svg" width="41" height="37" fill="none"><path fill="#fff" d="M15.418 31.254c-1.788 0-3.24 1.31-3.24 2.924 0 1.613 1.452 2.923 3.24 2.923 1.787 0 3.24-1.31 3.24-2.923s-1.565-2.924-3.24-2.924Zm16.198 0c-1.787 0-3.24 1.31-3.24 2.924 0 1.613 1.453 2.923 3.24 2.923 1.788 0 3.24-1.31 3.24-2.923s-1.564-2.924-3.24-2.924ZM38.766 5.545H10.5l-.893-3.327C9.272 1.008 8.044 0 6.59 0h-4.58C.894 0 0 .807 0 1.815s.894 1.814 2.01 1.814h3.911l5.25 18.248-2.122 4.335c-.223.505-.223 1.21.112 1.714.335.505 1.005.807 1.675.807h24.578c1.117 0 2.011-.807 2.011-1.815s-.894-1.814-2.01-1.814H13.852l1.229-2.42v-.1h20.332c1.006 0 1.9-.606 2.123-1.513L41 7.965c.335-1.21-.782-2.42-2.234-2.42Zm-18.992 11.09c0 .706-.67 1.31-1.453 1.31-.782 0-1.452-.604-1.452-1.31v-5.142c0-.706.67-1.31 1.453-1.31.782 0 1.452.604 1.452 1.31v5.142Zm6.703 0c0 .706-.67 1.31-1.453 1.31-.782 0-1.452-.604-1.452-1.31v-5.142c0-.706.67-1.31 1.453-1.31.782 0 1.452.604 1.452 1.31v5.142Zm6.703 0c0 .706-.67 1.31-1.453 1.31-.782 0-1.452-.604-1.452-1.31v-5.142c0-.706.67-1.31 1.453-1.31.782 0 1.452.604 1.452 1.31v5.142Z"/></svg>
